X:3585
L:1/8
Q:1/8=320
M:6/8
K:G
"^Double Jig" Bcd dcB | AGA BGE | DEG A3 | BAB GED | B2 G dBG | D2 B AGA | Bge dBA |1 BGF G3 :|2 
 BGF G2 || A | Bef gfe | cde fed | cde dcB | cBA B2 G | EGB e3 | gfe dBA | B2 G AGF |1 GFD E2 :|2 
 GFD E3 |]

